Modules/BetterCms.Module.Root/Scss/base_64/icons/editor-bulletedlist.svg

<svg xmlns="http://www.w3.org/2000/svg" width="13" height="11" viewBox="0 0 13 11" enable-background="new 0 0 13 11">
 <path fill="#474747" d="m2 0c-1.1 0-2 .9-2 2 0 1.1.9 2 2 2s2-.9 2-2c0-1.1-.9-2-2-2m4.5 0c-.3 0-.5.2-.5.5 0 .3.2.5.5.5h6c.3 0 .5-.2.5-.5 0-.3-.2-.5-.5-.5h-6m0 2c-.3 0-.5.2-.5.5 0 .3.2.5.5.5h6c.3 0 .5-.2.5-.5 0-.3-.2-.5-.5-.5h-6m-4.5 5c-1.1 0-2 .9-2 2 0 1.1.9 2 2 2s2-.9 2-2c0-1.1-.9-2-2-2m4.5 0c-.3 0-.5.2-.5.5s.2.5.5.5h6c.3 0 .5-.2.5-.5s-.2-.5-.5-.5h-6m0 2c-.3 0-.5.2-.5.5s.2.5.5.5h6c.3 0 .5-.2.5-.5s-.2-.5-.5-.5h-6"/>
</svg>

<svg version="1.1" id="Layer_1" xmlns="http://www.w3.org/2000/svg" xmlns:xlink="http://www.w3.org/1999/xlink" x="0px" y="0px"
	 width="13px" height="11px" viewBox="0 0 13 11" enable-background="new 0 0 13 11" xml:space="preserve">
<path id="path4680" fill="#474747" d="M2,0C0.9,0,0,0.9,0,2c0,1.1,0.9,2,2,2s2-0.9,2-2
	C4,0.9,3.1,0,2,0z M6.5,0C6.2,0,6,0.2,6,0.5C6,0.8,6.2,1,6.5,1h6C12.8,1,13,0.8,13,0.5C13,0.2,12.8,0,12.5,0H6.5z M6.5,2
	C6.2,2,6,2.2,6,2.5C6,2.8,6.2,3,6.5,3h6C12.8,3,13,2.8,13,2.5C13,2.2,12.8,2,12.5,2H6.5z M2,7C0.9,7,0,7.9,0,9c0,1.1,0.9,2,2,2
	s2-0.9,2-2C4,7.9,3.1,7,2,7z M6.5,7C6.2,7,6,7.2,6,7.5S6.2,8,6.5,8h6C12.8,8,13,7.8,13,7.5S12.8,7,12.5,7H6.5z M6.5,9
	C6.2,9,6,9.2,6,9.5S6.2,10,6.5,10h6c0.3,0,0.5-0.2,0.5-0.5S12.8,9,12.5,9H6.5z"/>
</svg>
